X: 16
T: Se mieulx ne vient d'amours peu me contente
N: Derived from Com3035-Se_mieulx_ne_vient_damours_peu_me_contente.krn
C: Loyset Comp\`ere
%%abc-version 2.0
%%abcx-abcm2ps-target-version 5.9.1 (29 Sep 2008)
%%abc-creator hum2abc beta
%%abcx-conversion-date 2019/02/16 20:28:09
%%abc-edited-by Jesse Rodin
%%abc-edited-by Megan K. Eagen 2013/12/01
%%abcx-initial-encoding-date 2013/12/01/
%%humdrum-veritas 2387297226
%%humdrum-veritas-data 2517285404
%%linebreak <none>
%%barnumbers 0
L: 1/4
M: 2/1
Q: 1/2=120
V: 1 clef=treble
V: 2 clef=treble-8
V: 3 clef=bass
K: C
[V:1] D4G4- | 
[V:2] z8 | 
[V:3] z8 | 
[V:1] G4G4 | 
[V:2] G4c4- | 
[V:3] z4C,4 | 
[V:1] A4c4 | 
[V:2] c4c4 | 
[V:3] F,4A,4 | 
[V:1] B6AG | 
[V:2] d4e4 | 
[V:3] G,8 | 
[V:1] A4A4 | 
[V:2] f8 | 
[V:3] F,4D,4 | 
[V:1] G4c4- | 
[V:2] e6dc | 
[V:3] E,4A,4 | 
[V:1] c2BABAGF | 
[V:2] d4d4 | 
[V:3] G,8 | 
[V:1] E8 | 
[V:2] c2c3ded/e/ | 
[V:3] C,8 | 
[V:1] z2D2G4- | 
[V:2] f4e4 | 
[V:3] D,4C,3D, | 
[V:1] G2A3GFE | 
[V:2] edcBc2d2 | 
[V:3] E,D,/E,/F,4D,2- | 
[V:1] F4E2A2- | 
[V:2] A8 | 
[V:3] D,E,F,G,A,B,CB,/C/ | 
[V:1] A2^G^FG4 | 
[V:2] B8 | 
[V:3] D2D,2E,4 | 
[V:1] A8- | 
[V:2] A8 | 
[V:3] A,,4z4 | 
[V:1] A8 | 
[V:2] z4A4 | 
[V:3] A,6C2- | 
[V:1] z4c4 | 
[V:2] A4A4 | 
[V:3] CB,A,G,F,4 | 
[V:1] B4B4 | 
[V:2] G4G4 | 
[V:3] z4G,4 | 
[V:1] A4G4 | 
[V:2] c8 | 
[V:3] F,4E,4 | 
[V:1] c8 | 
[V:2] c4e4- | 
[V:3] A,8- | 
[V:1] c4B4- | 
[V:2] e4e4 | 
[V:3] A,4G,4- | 
[V:1] B4B4 | 
[V:2] d4z2G2- | 
[V:3] G,8 | 
[V:1] A4G2A2- | 
[V:2] G2F2E2F2- | 
[V:3] D4G,2C2- | 
[V:1] A2GFE4 | 
[V:2] F2EDC4 | 
[V:3] CA,B,2C3B,/A,/ | 
[V:1] G4A4 | 
[V:2] z4c4 | 
[V:3] G,2F,E,F,4 | 
[V:1] A4G4- | 
[V:2] d4e3d | 
[V:3] F,4E,4 | 
[V:1] G2F3EDC | 
[V:2] cBd3cc2- | 
[V:3] z2D,4E,2 | 
[V:1] D4C4- | 
[V:2] c2B2c4- | 
[V:3] F,2G,2C,2F,2- | 
[V:1] C4z4 | 
[V:2] c8- | 
[V:3] F,E,A,3G,F,E, | 
[V:1] c4B4 | 
[V:2] c4z4 | 
[V:3] F,3E,G,4- | 
[V:1] B4A4 | 
[V:2] z4f4- | 
[V:3] G,4F,4 | 
[V:1] A4G4 | 
[V:2] f4e4 | 
[V:3] D,4E,2C,2- | 
[V:1] c4B2A2- | 
[V:2] e4d4 | 
[V:3] C,D,E,F,G,2F,2 | 
[V:1] A2GFE4 | 
[V:2] d4c4 | 
[V:3] D,4A,4 | 
[V:1] z2D3EFG | 
[V:2] d4z2D2- | 
[V:3] D,3E,F,G,A,2- | 
[V:1] A4AGFE | 
[V:2] DEFGA4 | 
[V:3] A,G,F,E,F,2D,2- | 
[V:1] F2E2D2G2- | 
[V:2] ABcB/c/d2G2 | 
[V:3] D,2C,2G,2F,E, | 
[V:1] G2^F2G4- | 
[V:2] A4G4- | 
[V:3] D,4z2D2- | 
[V:1] G8- | 
[V:2] G4z4 | 
[V:3] DCB,A,B,2G,2- | 
[V:1] G4z4 | 
[V:2] G4c4- | 
[V:3] G,F,E,D,E,2C,2 | 
[V:1] G4A4 | 
[V:2] c8- | 
[V:3] z2C,2F,4 | 
[V:1] G2A4GF | 
[V:2] c4z4 | 
[V:3] E,2F,4E,D, | 
[V:1] E8- | 
[V:2] c4c4 | 
[V:3] C,4z4 | 
[V:1] E4D4 | 
[V:2] cded/e/f4- | 
[V:3] C,4_B,,4 | 
[V:1] D4G4 | 
[V:2] f2ede4 | 
[V:3] _B,,4C,4 | 
[V:1] G4c4- | 
[V:2] edcBA4 | 
[V:3] C,4z4 | 
[V:1] c2BAB4 | 
[V:2] A4GABc | 
[V:3] F,4E,4 | 
[V:1] A2d3cc2- | 
[V:2] def2e2dc | 
[V:3] D,4G,2A,2 | 
[V:1] c2B2c4- | 
[V:2] d4c4- | 
[V:3] G,4C,3D, | 
[V:1] c2BAA2GF | 
[V:2] c4z4 | 
[V:3] E,2F,4E,D, | 
[V:1] E4z4 | 
[V:2] c8 | 
[V:3] C,8 | 
[V:1] E4E4 | 
[V:2] c4c4 | 
[V:3] C,4C,4 | 
[V:1] E4D4 | 
[V:2] c4d4- | 
[V:3] C,4G,4 | 
[V:1] z2A3GG2- | 
[V:2] d4B3G | 
[V:3] D,2F,2G,2E,2 | 
[V:1] G2^F2G4- | 
[V:2] A4G4 | 
[V:3] D,4z4 | 
[V:1] G4z4 | 
[V:2] z4G4 | 
[V:3] G,4E,4 | 
[V:1] G4A4 | 
[V:2] c8 | 
[V:3] C,4F,4- | 
[V:1] A4G2AB | 
[V:2] c4e4 | 
[V:3] F,4E,4 | 
[V:1] c4B2A2- | 
[V:2] e4d4 | 
[V:3] C,4G,2F,2 | 
[V:1] A2GFE4 | 
[V:2] d4c3B/A/ | 
[V:3] D,E,F,G,A,B,CB,/C/ | 
[V:1] z2G3ABc | 
[V:2] G4z2G2- | 
[V:3] D4G,3A, | 
[V:1] d4dcBA | 
[V:2] GABcdef2 | 
[V:3] B,CD2D,4 | 
[V:1] c2B4A2- | 
[V:2] e3dc2d2 | 
[V:3] A,2E,2F,2D,2 | 
[V:1] A2^G2A4 |]  
[V:2] B4A4 |]  
[V:3] E,4A,,4 |]  



